public/lightwhats.svg

<svg width="96" height="96" viewBox="0 0 96 96" fill="none" xmlns="http://www.w3.org/2000/svg">
<path d="M47.9167 0C21.6667 0 0 21.6667 0 47.9167C0 57.9167 2.91667 67.0833 8.33333 75L2.91667 91.25C2.5 92.0833 2.91667 92.9167 3.33333 93.3333C4.16667 93.75 5 94.1667 5.83333 93.75L22.5 88.3333C30 93.3333 39.1667 95.8333 47.9167 95.8333C74.1667 95.8333 95.8333 74.1667 95.8333 47.9167C95.8333 21.6667 74.1667 0 47.9167 0ZM76.6667 67.5C75.4167 71.25 70.4167 74.5833 66.25 75.4167C65.4167 75.4167 64.5833 75.8333 63.3333 75.8333C60 75.8333 55.8333 74.5833 49.1667 72.0833C40.8333 68.75 32.5 61.25 25.8333 51.6667L25.4167 51.25C22.9167 47.9167 19.1667 42.0833 19.1667 35.8333C19.1667 28.75 22.9167 25 24.1667 23.3333C25.8333 21.6667 27.9167 20.8333 30.4167 20.8333C30.8333 20.8333 31.25 20.8333 31.6667 20.8333H32.0833C34.1667 20.8333 35.4167 21.6667 36.6667 24.1667L37.5 25.8333C38.75 28.75 40.4167 33.3333 40.8333 34.1667C41.6667 35.8333 41.6667 37.0833 40.8333 38.3333C40.4167 39.1667 40 40 39.1667 40.8333C38.75 41.25 38.3333 41.6667 38.3333 42.0833C37.9167 42.5 37.5 42.9167 37.0833 43.3333C37.0833 43.75 37.0833 43.75 37.0833 43.75C38.3333 45.8333 40.8333 49.5833 44.1667 52.5C48.75 56.6667 52.0833 57.9167 53.75 58.75H54.1667C54.5833 58.75 55 59.1667 55 58.75C55.8333 57.9167 56.6667 56.25 57.9167 55L58.3333 54.5833C59.5833 52.9167 61.25 52.5 62.0833 52.5C62.5 52.5 63.3333 52.5 63.75 52.9167C64.1667 52.9167 65 53.3333 72.9167 57.5L73.75 57.9167C75 58.3333 75.8333 58.75 76.25 60C77.9167 60.8333 77.5 64.5833 76.6667 67.5Z" fill="#17A68C"/>
</svg>

<svg xmlns="http://www.w3.org/2000/svg" width="96" height="96" fill="none" xmlns:v="https://vecta.io/nano"><path d="M47.917 0C21.667 0 0 21.667 0 47.917c0 10 2.917 19.167 8.333 27.083L2.917 91.25c-.417.833 0 1.667.417 2.083.833.417 1.667.833 2.5.417L22.5 88.333c7.5 5 16.667 7.5 25.417 7.5 26.25 0 47.917-21.667 47.917-47.917S74.167 0 47.917 0zm28.75 67.5c-1.25 3.75-6.25 7.083-10.417 7.917-.833 0-1.667.417-2.917.417-3.333 0-7.5-1.25-14.167-3.75C40.833 68.75 32.5 61.25 25.833 51.667l-.417-.417c-2.5-3.333-6.25-9.167-6.25-15.417 0-7.083 3.75-10.833 5-12.5 1.667-1.667 3.75-2.5 6.25-2.5h1.25.417c2.083 0 3.333.833 4.583 3.333l.833 1.667c1.25 2.917 2.917 7.5 3.333 8.333.833 1.667.833 2.917 0 4.167-.417.833-.833 1.667-1.667 2.5-.417.417-.833.833-.833 1.25l-1.25 1.25v.417c1.25 2.083 3.75 5.833 7.083 8.75 4.583 4.167 7.917 5.417 9.583 6.25h.417c.417 0 .833.417.833 0 .833-.833 1.667-2.5 2.917-3.75l.417-.417c1.25-1.667 2.917-2.083 3.75-2.083.417 0 1.25 0 1.667.417.417 0 1.25.417 9.167 4.583l.833.417c1.25.417 2.083.833 2.5 2.083 1.667.833 1.25 4.583.417 7.5z" fill="#17a68c"/></svg>
